X:1
T:Adoration (Elvey), 87.87 D
T:Adoration (Elvey), 87.87 D
T:George Job Elvey (1816-1893)
T:Public Domain Courtesy of the Cyber Hymnal™
C:George Job Elvey (1816-1893)
Z:Public Domain
Z:Courtesy of the Cyber Hymnal™
%%score ( 1 2 ) ( 3 4 )
L:1/8
Q:1/4=110
M:none
K:D
V:1 treble 
V:2 treble 
V:3 bass 
V:4 bass 
V:1
 [DF]3 [DF] [EA]2 [EA]2 | [Dd]2 [Dd]2 [DA]2 [DA]2 | [DB]2 B2 [FA]2 D2 | [CG]2 [DF]2 [DF]2 [CE]2 | %4
 [DF]3 [DF] [DF]2 [DF]2 | [DG]2 [DA]2 [DB]2 [Ec]2 | d3 z B [E^G]2 [CA]2 | [FA]2 [E^G]2 [EA]4 | %8
 A3 z A [DA]2 [EG]2 | [DF]2 [CE]2 D2 D2 x | B3 z B [EB]2 [FA]2 | G2 [DF]2 [CE]4 | %12
 [Ec]3 [Ec] [Dd]2 [DA]2 | [DB]2 [EB]2 [EA]2 [CG]2 | [DF]2 [Dd]2 [DB]2 [EG]2 | [DF]2 [CE]2 D4 x |] %16
V:2
 x8 | x8 | x2 (DE) x D2 x | x8 | x8 | x8 | D2 F2 x5 | x8 | C2 C2 x5 | x4 D2 D2 x | D2 ^D2 x5 | %11
 (B,C) x6 | x8 | x8 | x8 | x4 D4 x |] %16
V:3
 [D,A,]3 [D,A,] [C,A,]2 [C,A,]2 | [B,,F,]2 [B,,F,]2 [F,,A,]2 [F,,A,]2 | %2
 (G,A,) (B,C) [F,D]2 [G,B,]2 | [E,G,]2 [D,A,]2 [A,,A,]4 | [D,A,]3 [D,A,] [=C,A,]2 [C,A,]2 | %5
 [B,,G,]2 [D,F,]2 G,2 [E,G,]2 | [F,A,]2 [D,D]2 [E,B,]2 [F,A,]2 x | [D,D]2 [E,B,]2 [A,,C]4 | %8
 A,2 [G,A,]2 [F,A,]2 [C,A,]2 x | A,3 z G, [B,,F,]2 [B,,F,]2 | G,2 [F,A,]2 [E,G,]2 [^D,F,]2 x | %11
 [E,G,]2 A,2 A,4 | A,3 [G,A,] [F,A,]2 [D,F,]2 | G,2 [E,G,]2 [C,A,]2 [A,,A,]2 | %14
 [D,A,]2 [F,A,]2 G,2 [G,,B,]2 | A,3 z G, [D,F,]4 |] %16
V:4
 x8 | x8 | G,,2 G,2 x4 | x8 | x8 | x4 G,2 x2 | x9 | x8 | A,2 x7 | D,2 A,,2 x5 | G,2 x7 | %11
 x2 (F,G,) A,4 | A,3 x5 | G,2 x6 | x4 G,2 x2 | A,,2 A,,2 x5 |] %16

